images/Vector_1.svg

<svg width="34" height="34" viewBox="0 0 34 34" fill="none" xmlns="http://www.w3.org/2000/svg">
<path d="M33.3167 25.4333L24.0667 16.1833L26.6833 13.5667L20.4333 7.31668L17.8167 9.93335L8.56667 0.68335L0.683334 8.56668L9.93333 17.8167L2 25.75V32H8.25L16.1833 24.0667L25.4333 33.3167L33.3167 25.4333ZM12.3 15.45L5.4 8.56668L8.56667 5.40002L10.6833 7.51668L8.7 9.50002L11.05 11.85L13.0333 9.86668L15.45 12.2833L12.3 15.45ZM18.55 21.7L21.7167 18.5333L24.1333 20.95L22.15 22.9333L24.5 25.2833L26.4833 23.3L28.6 25.4167L25.4333 28.5834L18.55 21.7ZM22.2217 5.53835L26.4517 1.30668L32.6983 7.55335L28.4683 11.785L22.2217 5.53835Z" fill="#F9995D"/>
</svg>

<svg width="34" height="34" fill="none" xmlns="http://www.w3.org/2000/svg"><path d="M33.317 25.433l-9.25-9.25 2.616-2.616-6.25-6.25-2.616 2.616-9.25-9.25L.683 8.567l9.25 9.25L2 25.75V32h6.25l7.933-7.933 9.25 9.25 7.884-7.884zM12.3 15.45L5.4 8.567 8.567 5.4l2.116 2.117L8.7 9.5l2.35 2.35 1.983-1.983 2.417 2.416-3.15 3.167zm6.25 6.25l3.167-3.167 2.416 2.417-1.983 1.983 2.35 2.35 1.983-1.983 2.117 2.117-3.167 3.166L18.55 21.7zm3.672-16.162l4.23-4.231 6.246 6.246-4.23 4.232-6.246-6.247z" fill="#F9995D"/></svg>
